X:1
T:Piano Concerto No. 5
T:Piano Concerto No. 5
T:Arranged for 4 hands
T:Beethoven
C:Beethoven
%%score { ( 1 3 ) | 2 }
L:1/8
Q:1/4=60
M:4/4
K:B
V:1 bass nm="Piano" snm="Pno."
V:3 bass 
V:2 bass 
V:1
"^SECONDO""^Adagio un poco mosso.""^Tutti"!p! ([F,B,D]4 [F,A,C]2 [F,B,D]2 | %1
 [G,B,]2 [G,CE]2 [F,A,C]4) | [F,B,]2 (B,2 B,2 C2 | B,2 [F,B,]2 [F,A,]4) | F,2 F,2 F,3 F, | %5
 F,2 F,2 F,3 F, |"_cresc." (D,2 [D,C]2 [D,B,]2) z2 | ([D,B,]2 [F,C]2 [F,D]2) z2 | %8
!f! [G,B,E]2 [F,CE]2 F,2 G,2 |"_dim." ([B,D]2 [A,CE]2!p! [B,D]2) z2 | %10
!f! (E2 F,2)!>(! (F,2 G,2)!>)! |!p! F,2 z2 F,2 z2 |!<(! (B,2 =G,2!<)!!>(! F,3 A,)!>)! | %13
!<(! (B,2 =G,2!<)!!>(! F,3 A,)!>)! |!p! B,2 z2 [F,B,]2 z2 | %15
!pp! (3z F,B, (3D,F,B, (3D,F,B, (3D,F,B, | (3D,F,B, (3D,F,B, (3D,F,B, (3D,F,D, | %17
 (3E,F,A, (3C,F,A, (3C,F,A, (3C,F,A, | (3C,F,A, (3C,F,A, (3C,F,A, (3C,F,A, | %19
 (3B,,F,B, (3B,,F,B, (3E,G,B, (3E,G,B, | (3C,G,C (3C,G,C (3F,A,C (3F,A,C | %21
 (3F,A,D (3F,A,D (3G,B,D (3G,B,D | (3G,B,^E (3G,B,E (3G,B,C (3G,B,C | F,2 z2 z4 | z8 | %25
!pp!"^Tutti" ([F,A,]2 [^E,C]2 [F,C]2) z2 |!<(! ([F,C]2 [F,=D]2!<)!!>(! [=G,E]4)!>)! | %27
"^Solo"!pp! (3[F,=D]=A,D (3F,A,D (3F,A,D (3F,A,D | (3F,=A,=D (3F,A,D (3F,A,D (3F,A,F, | %29
 (3E,=G,C (3E,G,C (3E,G,C (3E,G,C | (3E,=G,C (3E,G,C (3E,G,C (3E,G,C | %31
"_dolce" ([F,=A,=D]2 [A,E]2 [DF]2) z2 | ([=A,=DF]2 [E=G]2 [F=A]2) z2 | %33
 B,2 [=A,=C]2"_cresc." [B,=D]2 [B,DE]2 | %34
!f! [=DF]2 [E=G]/[F=A]/[GB]/[Ac]/ [B=d]/[ce]/[df]/[e=g]/ [f=a]/[eg]/[df]/[Ge]/ | %35
 [F=d]/[Ec]/[=DB]/[C=A]/ =G/F/E/D/ C/[B,D]/[CE]/[DF]/ [EG]/[^DF]/[EG]/[CE]/ | %36
"_dim." [E=G]/[CE]/[EG]/[DF]/ [EG]/[DF]/[EG]/[CE]/ [EG]/[CE]/[EG]/[DF]/ [EG]/[DF]/[EG]/[CE]/ | %37
 [E=G]/[CE]/[EG]/[DF]/ [EG]/[CE]/[EG]/[DF]/ [EG]/[CE]/[EG]/[CE]/ [EG]/[CE]/[EG]/[CE]/ | %38
!p! [=A,CE] z z2 [=C=D] z z2 | [B,=D] z [B,E] z [CE] z [CF] z | [=DF] z z2 [D=G] z z2 | %41
 [=G,E] z [=A,E] z [A,F] z [B,F] z | [B,=G] z z2 [B,^G] z z2 | [B,F] z z2 z4 | %44
"_cantabile" (3(F,B,D) (3(F,B,D) (3(F,A,C (3F,B,D) | (3G,B,E (3G,CE (3F,A,C (3E,A,C | %46
 (3D,F,B, (3=D,F,B, (3C,G,B, (3F,A,C | (3F,B,D (3F,B,D (3F,A,C (3F,A,C | %48
 (3F,CE (3F,CE (3F,B,D (3F,B,D | (3F,CE (3F,CE (3F,B,D (3F,B,D | %50
"_cresc." (3F,B,D (3D,A,C (3D,G,B, (3D,G,B, | (3D,G,B, (3F,A,C (3F,B,D (3F,B,D | %52
"^Tutti"!f! (3G,B,E (3G,CE (3F,B,D (3E,B,E |"_dim." (3F,B,F, (3F,CF,"^Solo"!p! (G,2 ^^F,2) | %54
 (G,2 A,2 B,2) .[G,B,]2 | .[B,D]2 z2 .[CE]2 z2 | z8 | z8 | z8 | %59
 z!p! [F,B,D] z [F,B,D] z [F,A,C] z [F,B,D] | z [G,B,] z [G,CE] z [F,A,C] z [F,A,C] | %61
 z [F,B,] z [F,B,] z [G,B,^E] z [A,C=E] | z [B,D] z [F,B,D] z [F,A,C] z [F,A,C] | %63
 z [F,CE] z [F,CE] z [F,B,D] z [F,B,D] | z [F,CE] z [F,CE] z [F,B,D] z [D,B,D] | %65
 z [D,B,D] z [D,CD] z [D,B,D] z [G,B,D] | z [G,B,D] z [F,CF] z [F,B,D] z [B,DF] | %67
 z [B,EG] z [F,EF] z [F,DF] z [G,B,E] | z [B,D] z [CE] z [B,D] z [B,D] | %69
 z"_cresc." [B,D] z [A,F] z [B,F] z"_dim." [B,EG] | z[K:treble] [B,DB] z [B,DB] z [CEA] z [CEA] | %71
 z [C=DF=A] z [CDFA] z [B,E=G] z [B,EG] | z[K:bass] [=A,=CDF] z [=G,^A,^CE] z [G,A,CE] z [F,CE] | %73
 z!pp! [F,B,D] z [=G,B,E] z [F,A,E] z [F,CE] | z [F,B,D] z [=G,B,E] z [F,A,E] z [F,CE] | %75
 z"_sempre piu dim." [F,B,D] z [F,B,D] z [F,B,D] z [D,F,B,] | %76
 z [D,F,B,] B,/(F/D/)(F/ F,/)(D/B,/)(D/ D,/)(B,/F,/)(B,/ | %77
"_morendo" B,,/)(F,/D,/)(F,/ B,,/)(F,/D,/)(F,/ B,,/)(F,/D,/)(F,/ B,,/)(F,/D,/)(F,/ | %78
!pp! [B,,B,]8) |] %79
V:2
 .[B,,,B,,]2 z2 .F,,2 .[B,,,B,,]2 | .[E,,E,]2 .[C,,C,]2 .F,,3 [E,,E,] | %2
 .[D,,D,]2 .[=D,,=D,]2 .[C,,C,]2 .[F,,,F,,]2 | .[B,,,B,,]2 .[D,,D,]2 .F,,2 z2 | %4
 .[A,,,A,,]2 .[F,,,F,,]2 .[B,,,B,,]2 z .[B,,,B,,] | %5
 .[A,,,A,,]2 .[F,,,F,,]2 .[B,,,B,,]2 z .[B,,,B,,] | ([B,,,B,,]2 D,,2 [G,,,G,,]2) z2 | %7
 (G,,2 F,,2 B,,2) z2 | ([E,,E,]2 [C,,C,]2 [B,,,B,,]2 [E,,E,]2) | %9
 ([F,,F,]2 [F,,,F,,]2 [G,,,G,,]2) z2 | ([E,,E,]2 [C,,C,]2 [B,,,B,,]2 [E,,E,]G,,) | %11
 F,,2 z2 F,,2 z2 | [B,,,B,,]8 | [B,,,B,,]8 | [B,,,B,,]2 z2 [B,,,B,,]2 z2 | [B,,,B,,]8- | %16
 [B,,,B,,]8 | [F,,,F,,]8- | [F,,,F,,]8 | B,,,4 E,,4 | C,,4 F,,4 | D,,4 G,,4 | [C,,C,]6 [C,,C,]2 | %23
 F,,2 z2 z4 | z8 | (F,,2 [C,,C,]2 F,,2) z2 | (F,,2 [B,,,B,,]2 [=A,,,=A,,]4) | [=D,,=D,]2 z2 z4 | %28
 z8 | [=A,,,=A,,]2 z2 z4 | z8 | [=D,,=D,]2 z2 z4 | [=D,,=D,]2 z2 z4 | %33
 [=G,,=G,]2 z2 ([G,,G,]2 [^G,,^G,]2) | [=A,,=A,]8- | [A,,A,]2 B,/=A,/G,/F,/ E,/ z/ z z2 | z8 | z8 | %38
 =A,, z z2 [=D,,=D,] z z2 | [=G,,=D,] z [E,,E,] z [=A,,E,] z [F,,F,] z | %40
 [B,,F,] z z2 [=G,,=G,] z z2 | [=C,,=C,] z [=A,,,=A,,] z [=D,,=D,] z [B,,,B,,] z | %42
 [E,,E,] z z2 [C,,C,] z z2 | [D,,D,] z z2 z4 | .[B,,,B,,]2 .B,,2 .F,,2 .B,,2 | %45
 .E,,2 .C,,2 .F,,2 z .E,, | .D,,2 .=D,,2 .C,,2 .F,,2 | .[B,,,B,,]2 .D,,2 .F,,2 z2 | %48
 .[A,,,A,,]2 .[F,,,F,,]2 .[B,,,B,,]2 z .[B,,,B,,] | %49
 .[A,,,A,,]2 .[F,,,F,,]2 .[B,,,B,,]2 z .[B,,,B,,] | .[B,,,B,,]2 .D,,2 .[G,,,G,,]2 z2 | %51
 .G,,2 .F,,2 .[B,,,B,,]2 z2 | ([E,,E,]2 [C,,C,]2 [B,,,B,,]2 E,,2) | %53
 (F,,2 [F,,,F,,]2 [G,,,G,,]2) z2 | .G,,2 .A,,2 .B,,2 .[E,,E,]2 | .[F,,F,]2 z2 .[F,,F,]2 z2 | z8 | %57
 z8 | z8 | z [D,,D,] z [D,,D,] z F,, z [D,,D,] | z [E,,E,] z [C,,C,] z F,, z [E,,E,] | %61
 z [D,,D,] z [=D,,=D,] z [C,,C,] z [F,,,F,,] | z [B,,,B,,] z [D,,D,] z F,, z F,, | %63
 z [A,,,A,,] z [F,,,F,,] z [B,,,B,,] z [B,,,B,,] | %64
 z [A,,,A,,] z [F,,,F,,] z [B,,,B,,] z [B,,,B,,] | z [B,,,B,,] z D,, z [G,,,G,,] z [G,,,G,,] | %66
 z [G,,,G,,] z [F,,,F,,] z [B,,,B,,] z [B,,,B,,] | z [E,,E,] z [C,,C,] z [B,,,B,,] z [E,,E,] | %68
 z [F,,F,] z [F,,F,] z [G,,G,] z [G,,G,] | z [G,,G,] z [F,,F,] z B,, z [E,,E,] | %70
 z [F,,F,] z [F,,F,] z [F,,F,] z [F,,F,] | z [B,,,B,,] z [B,,,B,,] z [B,,,B,,] z [B,,,B,,] | %72
 z [B,,,B,,] z [B,,,B,,] z [B,,,B,,] z [B,,,B,,] | [B,,,B,,]8 | [B,,,B,,]8 | %75
 z [B,,,B,,] z [B,,,B,,] z [B,,,B,,] z [B,,,B,,] | z [B,,,B,,] z [B,,D,F,] z [B,,D,] z (B,, | %77
 B,,,/)(F,,/D,,/)(F,,/ B,,,/)(F,,/D,,/)(F,,/ B,,,/)(F,,/D,,/)(F,,/ B,,,/)(F,,/D,,/)(F,,/ | %78
 B,,,) z z2 z4 |] %79
V:3
 x8 | x8 | x8 | x8 | x8 | x8 | x8 | x8 | x4 (D2 B,E) | x8 | x8 | x8 | x8 | x8 | x8 | x8 | x8 | x8 | %18
 x8 | x8 | x8 | x8 | x8 | x8 | x8 | x8 | x8 | x8 | x8 | x8 | x8 | x8 | x8 | x8 | x8 | x8 | x8 | %37
 x8 | x8 | x8 | x8 | x8 | x8 | x8 | x8 | x8 | x8 | x8 | x8 | x8 | x8 | x8 | x8 | x8 | x8 | x8 | %56
 x8 | x8 | x8 | x8 | x8 | x8 | x8 | x8 | x8 | x8 | x8 | x8 | x8 | x8 | x[K:treble] x7 | x8 | %72
 x[K:bass] x7 | x8 | x8 | x8 | x8 | x8 | x8 |] %79

